X: 769
T: Daniel O'Rourke.
C:J. O'Neill.
B:O'Neill's Music of Ireland
N:O'Neill's - 769
Z:Transcribed by Stephen Foy (shf@access.digex.net)
Z:abc 1.6
M:6/8
R:Jig
K:Dmix
b/a/|gdB BdB|gdB gba|gdB BdB|ecA A2 f|\
gdB BdB|gdB gab|afd ge^c|ded d2:|
||z|d2 b afd|afd fga|d2 b afd|ecA cde|d2 b afd|afd fga|\
[1 bge afd ecA cde:|[2 Bge cAc|ded d2||
||(B/c/)|d2 d' d'ag|fdd def|gag bge|cAA A2 (B/c/)|\
d2 d' d'ag|fdd d2 d/c/|Bge cAc|ded d2:|


